X:3
T:Kadril van Brussel
T:Derde figuur
C:Trad.
O:Vlaanderen
Z:Bart Vanhaverbeke 
P:ABA
L:1/16
M:2/4
K:G
P:Voorspel
G2DG B2GB | d^cde d2B2 | edcB A2F2 | G4 G4 ||
P:A
G2DG B2GB | d^cde d2B2 | edcB A2F2 | dcBA B2d2 | G2DG B2GB | d^cde d2B2 | Ad^cB A2 c2 | d2dd d2d2 |
G2DG B2GB | d^cde d2B2 | edcB A2F2 | dcBA B2d2 | G2DG B2GB | ABcd e2G2 | FGAB cdef | g2 z2 g2 z2 |]
P:B
K:C
(g8 | g2)e2 f2a2 | g8 | e2 z2 e4 | f4 d4 | b4 a4 | g6 f2 | e8 | 
(g8 | g2)e2 f2a2 | g8 | e4 e4 | d4 f4 | e4 d4 | (c8 | c4) z4 |]
